X: 29
T:Cross the Fence
R:hornpipe
C:Brendan McGlinchey
Z:added by Alf Warnock - alf0@rogers.com - www.alfwarnock.info/alfs
M:4/4
L:1/8
K:G
|:GA|~B3G ~c3A|d^cde dBGB|~c3d BGDG|cA (3BAG AGFD|
GDB,D GABc|dgge dBGB|dg (3Bcd ecAF|AGGF G2:|
|:AG|FDA,D FAcA|B~G3 DGBd|ecc2 dBB2|cAag  fdcA|
D~B3 D~c3|~d3e dBGB|dgBd ecAF|AGGF G2:|
|:Bc|dggf g2 bg|dg (3gfg agfg|ea a^g aba=g|fed^c d2 d=c|
(3Bcd BG (3ABc AF|GDB,D GABc|dg (3Bcd edcF|AG GF G2:|

